files/resources/svgs/general/m-megaphone.svg

<svg width="20" height="20" viewBox="0 0 20 20" fill="none" xmlns="http://www.w3.org/2000/svg">
<path d="M13.9202 3.84536C11.9859 4.84219 9.86368 5.52477 7.62054 5.82595C6.76376 5.94099 5.88902 6.00044 5 6.00044C2.79086 6.00044 1 7.7913 1 10.0004C1 12.0389 2.52477 13.7211 4.49597 13.969C4.78782 15.1067 5.20979 16.2273 5.76704 17.3103C6.1636 18.0809 7.10902 18.3091 7.81763 17.9L8.68366 17.4C9.41014 16.9805 9.62418 16.0789 9.27228 15.3786C9.10619 15.0482 8.95684 14.7133 8.82394 14.3751C10.6243 14.733 12.3353 15.3388 13.9201 16.1555C14.6189 14.2352 15 12.1623 15 10.0004C15 7.83855 14.6189 5.76569 13.9202 3.84536Z" fill="#0F172A"/>
<path d="M15.2428 3.09699C16.0553 5.24298 16.5 7.56977 16.5 10.0004C16.5 12.4311 16.0553 14.7579 15.2428 16.9039C15.2428 16.9039 15.2427 16.9038 15.2428 16.9039L15.2135 16.9811C15.0652 17.3679 15.2585 17.8016 15.6452 17.95C16.032 18.0983 16.4657 17.905 16.6141 17.5183C16.7002 17.2938 16.7825 17.0674 16.8611 16.8393C17.4152 15.2298 17.7791 13.532 17.9262 11.7733C18.5645 11.4393 19 10.7712 19 10.0004C19 9.22971 18.5645 8.56163 17.9262 8.22758C17.7791 6.46885 17.4152 4.77112 16.8611 3.16156C16.7825 2.93344 16.7002 2.7071 16.6141 2.48262C16.4657 2.09587 16.032 1.90259 15.6452 2.05091C15.2585 2.19924 15.0652 2.633 15.2135 3.01974L15.2428 3.09699C15.2427 3.09702 15.2428 3.09695 15.2428 3.09699Z" fill="#0F172A"/>
</svg>

<svg xmlns="http://www.w3.org/2000/svg" viewBox="0 0 20 20" fill="currentColor" aria-hidden="true">
  <path d="M13.92 3.845a19.361 19.361 0 01-6.3 1.98C6.765 5.942 5.89 6 5 6a4 4 0 00-.504 7.969 15.974 15.974 0 001.271 3.341c.397.77 1.342 1 2.05.59l.867-.5c.726-.42.94-1.321.588-2.021-.166-.33-.315-.666-.448-1.004 1.8.358 3.511.964 5.096 1.78A17.964 17.964 0 0015 10c0-2.161-.381-4.234-1.08-6.155zM15.243 3.097A19.456 19.456 0 0116.5 10c0 2.431-.445 4.758-1.257 6.904l-.03.077a.75.75 0 001.401.537 20.902 20.902 0 001.312-5.745 1.999 1.999 0 000-3.545 20.902 20.902 0 00-1.312-5.745.75.75 0 00-1.4.537l.029.077z"/>
</svg>
